X: 1109
T: Dublin Castle
%R: march, reel
B: Henry Playford "Apollo's Banquet", London 1687 (5th Edition)
F: https://archive.org/details/apollosbanquetco01rugg
Z: 2017 John Chambers <jc:trillian.mit.edu>
M: C|
L: 1/8
K: F
% - - - - - - - - - -
fe |\
f2c2 def2 | c2 A4 d2 |  cdcA GAGF | E2 C4 fe |\
f2c2 def2 | A2 d4 cd | =B2c2 c3=B | c2 c4 :|
|: gf |\
g2e2 fga2 | f2 d4  ga | b2d2 gagf | e2 c4 de |\
fefc d2ef | gfgd e2dc | agaf f3e  | f6 |]
% - - - - - - - - - -

%%sep 1 1 500
%%sep 1 1 500

